X:25
T:Malhurous Qu'o Uno Fenno
M:3/8
L:1/8
R:Bourre
N:La Bourre 4th edition 1929, page 40
Z:Steve Mansfield www.lesession.co.uk May 2012
K:F
F/ A/ | c c/ c/ c | d c d/ e/ | f e d |
c2 F/ A/ | c c/ c/ c | d c d/ e/ | f e d |
c2 F/ A/ | c c c | A F G/ A/ | B/ B/ G E | F3 |]

